public/img/team/zak.svg

<svg width="179" height="208" viewBox="0 0 179 208" fill="none" xmlns="http://www.w3.org/2000/svg">
<path d="M116.227 7.0446C107.696 2.1509 98.5299 0.0857262 88.7288 0C77.5507 0.434222 65.761 3.82643 57.9485 12.2627C56.1618 14.2172 54.6425 16.4004 53.4306 18.7548C40.7237 20.622 30.5879 25.9263 27.1084 28.345C19.5435 33.8553 14.6282 41.0779 12.2442 51.7742C10.9347 57.6494 9.01112 75.0398 11.7926 97.6002C12.5299 101.155 12.3618 104.965 13.078 108.531C5.87351 107.439 1.26867 110.338 0.212429 117.85C-1.77476 131.986 10.5047 144.675 23.4624 148.142C24.4745 152.558 26.1065 156.477 27.6285 160.692C36.2501 184.567 59.2333 204.894 85.0488 207.464C99.3284 208.728 112.037 204.296 123.011 195.125C136.543 183.818 144.517 165.454 148.468 148.65C159.216 145.883 169.674 132.369 168.448 120.952C167.643 113.452 162.139 112.14 155.673 113.071C156.543 110.559 158.342 107.934 158.838 105.884C158.693 105.358 158.55 104.793 158.383 104.277C166.086 101.464 170.589 97.6671 168.831 88.9802C175.36 83.9007 184.995 68.9062 171.3 49.5642C169.671 47.341 168.23 46.1604 166.148 44.4545L166.127 44.4377C162.264 31.9733 146.876 7.0446 116.227 7.0446Z" fill="black"/>
<path d="M147.019 133.972C148.142 126.233 148.534 117.876 148.38 110.064C120.691 114.152 105.346 79.2521 101.135 61.2913C92.2455 52.4606 66.2753 60.5745 54.4014 65.7353C54.2867 89.3602 34.3508 101.725 24.3972 104.954C24.3311 110.35 24.3945 115.768 24.2944 121.169C24.2659 122.718 24.8638 126.633 23.2531 127.334C22.737 127.302 22.4672 127.124 22.1438 126.734C18.4609 122.341 21.9721 115.488 14.9963 113.417C13.4313 112.952 11.8522 112.271 10.1552 112.261C6.19315 112.238 4.07164 116.578 4.05487 119.945C4.02462 126.055 7.7712 133.337 11.8383 137.606C14.7708 140.743 18.6167 142.873 22.8296 143.699C22.5174 142.238 21.1968 138.133 23.3652 137.715C25.7988 137.248 26.0627 142.525 26.437 144.224C27.1587 147.453 28.0462 150.643 29.096 153.781C34.6746 169.987 42.6183 181.189 56.3037 191.551C57.4031 192.384 62.3166 195.783 63.2722 195.929C63.7321 195.733 63.7352 195.705 64.1038 195.397C64.5404 195.705 64.5141 196.329 64.5608 196.841C65.0141 197.071 65.8797 197.582 66.3362 197.6C66.5465 197.05 66.5574 196.735 66.973 196.432C67.8224 196.696 67.8851 197.924 68.4791 198.651L69.0199 198.925C69.6311 198.273 69.0752 197.972 69.5994 197.738C71.9857 198.81 70.4953 200.027 75.0236 201.247C74.5992 200.205 74.3812 199.774 74.5654 198.628C74.854 198.234 74.6636 198.365 75.1814 198.267C77.0129 198.763 76.4876 200.171 77.9619 200.647C81.1382 201.672 80.2959 202.995 84.2139 203.088C83.8354 201.741 83.4097 200.608 83.596 199.205L83.7738 198.944C85.0769 199.192 86.3871 202.275 87.0423 203.376C88.3396 203.441 89.3489 203.475 90.6434 203.434C90.5545 202.129 90.2248 199.96 90.9544 198.936C91.3816 198.699 91.1609 198.729 91.6411 198.845C93.1306 200.103 93.1506 202.9 95.8242 203.12L96.1152 202.978C96.3417 202.009 95.2221 201.227 95.8858 200.574C97.7552 200.466 98.0233 203.623 99.9055 202.195C99.3178 201.217 98.1652 200.328 98.148 199.397C99.0052 198.982 101.523 201.018 102.626 201.488C103.779 201.242 104.537 200.998 105.618 200.492C104.83 199.838 104.146 199.336 103.706 198.392L103.77 198.104C104.791 197.563 107.457 198.928 108.617 199.259C109.363 198.977 110.115 198.706 110.841 198.375C110.388 198.018 110.026 197.815 109.808 197.292L109.866 197.011C110.462 196.763 110.821 196.907 111.378 197.136C111.669 197.258 111.96 197.384 112.247 197.516C112.926 197.106 113.606 196.692 114.278 196.269C130.467 186.083 139.575 167.542 144.046 149.495C145.309 144.377 146.301 139.195 147.019 133.972Z" fill="#BEB5A8"/>
<path d="M111.175 99.6283C116.992 99.0913 125.34 99.7338 130.594 102.328C133.897 103.96 136.985 106.666 139.196 109.598C139.736 110.312 140.872 112.179 141.063 113.052C142.26 118.547 136.876 113.092 135.736 112.21C128.154 106.438 117.741 107.684 108.738 107.014C108.008 106.836 106.671 107.564 106.069 107.519C102.741 107.269 102.433 100.051 105.818 99.7597C106.249 99.7225 106.459 100.371 106.646 100.749C106.711 100.672 106.778 100.596 106.846 100.52C107.707 99.5606 109.77 99.7106 111.175 99.6283Z" fill="black"/>
<path d="M55.7001 95.7529C56.5539 95.6546 57.4693 95.6606 58.3318 95.6602C62.6469 95.6576 76.1006 97.4714 78.9372 100.532C79.3099 100.934 79.5579 101.503 79.5228 102.057C79.4644 102.979 78.8296 104.068 78.104 104.627C77.5862 105.025 77.0333 105.234 76.3833 105.29C73.6915 105.522 70.7522 104.62 68.1308 104.074C65.815 103.593 63.5247 103.164 61.1741 102.896C53.0791 102.019 48.3832 102.732 41.3649 106.623C40.7642 106.956 40.0355 107.13 39.3775 106.85C38.4027 105.862 39.1841 104.833 39.9332 103.941C43.9302 99.1832 49.5536 96.4181 55.7001 95.7529Z" fill="black"/>
<path d="M98.0032 116.879C98.5508 116.925 98.5795 116.893 99.0683 117.177C99.6202 118.003 99.2174 119.535 99.1343 120.582C99.0067 122.205 98.8203 123.781 98.8132 125.417C98.8031 127.727 98.6755 130.015 99.3536 132.259C100.538 136.245 103.961 139.723 103.759 144.099C103.388 152.161 92.4668 153.694 86.3298 153.456C85.289 153.281 83.9774 152.9 83.8125 151.678C84.3745 149.162 89.6399 149.997 91.7099 149.494C93.6266 149.028 95.7884 148.492 97.4441 147.316C102.754 143.547 96.3403 137.331 95.5762 132.932C94.9096 129.088 95.2838 125.284 96.0163 121.483C96.3432 119.785 96.5582 117.871 98.0032 116.879Z" fill="black"/>
<path d="M59.5907 114.539C62.5765 114.423 65.8069 114.602 68.6552 115.544C70.0125 115.993 75.4137 118.026 74.535 119.994C74.1878 120.248 73.532 120.441 73.1465 120.272C69.0361 118.47 65.7282 118.077 61.2198 118.048C61.6517 121.135 61.9804 123.453 58.5081 124.724C56.8086 125.179 54.1795 125.246 52.6528 124.359C51.0655 123.437 50.7515 122.372 50.3003 120.779C48.8259 121.422 44.4393 125.017 43.5781 122.996C43.6197 121.962 44.3426 120.976 45.0274 120.232C48.8242 116.1 54.2356 114.819 59.5907 114.539Z" fill="black"/>
<path d="M113.414 119.127C119.235 118.902 132.43 122.517 133.826 130.155C133.879 130.445 133.64 130.593 133.449 130.759C133.055 130.843 132.364 130.884 132.048 130.633C129.415 128.535 127.322 126.812 124.27 125.257C122.609 124.461 121.551 124.07 119.776 123.587C119.734 124.355 119.683 125.717 119.419 126.404C117.436 131.553 110.575 129.364 108.763 125.233C108.836 124.251 108.899 123.858 109.113 122.902C108.014 122.955 105.076 123.346 104.43 122.35C104.936 120.172 111.537 119.21 113.414 119.127Z" fill="black"/>
<path d="M68.7023 166.973C70.7587 166.893 75.5788 167.946 77.8643 168.312C81.5049 168.891 85.1767 169.257 88.8594 169.407C94.3184 169.641 99.8074 169.713 105.216 169.016C106.539 168.845 108.506 168.444 109.213 169.867C109.226 170.89 108.455 171.129 107.609 171.436C100.821 173.067 94.5162 173.129 87.5779 172.808C81.8925 172.522 76.2634 171.54 70.8167 169.885C69.9297 169.615 68.4053 169.277 67.831 168.646C67.5064 167.68 67.8541 167.36 68.7023 166.973Z" fill="black"/>
<path d="M96.5209 155.928C98.1594 155.784 98.8303 156.05 100.214 156.818C101.181 158.664 101.485 159.232 102.86 160.759C102.847 159.909 102.635 158.699 103.664 158.495C104.676 158.842 106.282 161.438 107.503 162.63C107.181 161.793 106.501 160.22 107.017 159.414C108.074 159.259 112.115 164.478 110.813 165.461C110.259 165.485 110.256 165.442 109.774 165.194C108.912 164.397 108.484 163.658 107.658 162.906C107.631 163.63 107.672 163.828 107.112 164.316C105.995 164.591 105.923 164.088 104.976 163.645C104.091 163.23 104.794 164.022 103.767 164.455C103.157 164.419 102.988 164.211 102.494 163.828L102.315 163.686L102.17 163.732C102.454 164.338 102.741 164.728 102.404 165.346L102.043 165.398C101.325 165.134 100.751 164.512 100.165 163.983C99.3765 164.135 98.6411 164.321 97.8469 164.146C93.5706 163.206 91.0289 157.446 96.5209 155.928Z" fill="black"/>
<path d="M85.5244 155.228C86.8247 155.19 88.2138 155.832 89.0452 156.828C89.7606 157.681 90.0846 158.796 89.9383 159.9C89.7778 161.047 89.1614 161.989 88.241 162.638C85.8728 164.31 84.3604 162.923 81.9896 163.084C80.3215 163.197 79.1992 164.525 77.2927 164.24C77.1803 163.247 77.9672 162.62 78.5909 161.896C77.7429 162.409 76.4015 163.394 75.4118 163.038C75.073 161.881 78.9019 157.436 79.9836 157.126C80.2195 157.354 80.1402 157.442 80.1719 157.88C80.4636 157.872 82.448 156.151 83.139 155.865C84.2041 155.422 84.4005 155.405 85.5244 155.228Z" fill="black"/>
<path d="M82.35 177.844C82.9764 177.887 83.7721 178.093 84.4315 178.222C88.596 179.032 93.1288 179.309 97.3492 178.813C98.5749 178.669 100.063 177.781 101.317 177.885C101.478 178.017 101.658 178.085 101.653 178.304C101.561 181.975 96.7987 181.18 94.29 181.37C94.9236 182.466 96.1278 182.255 96.5837 183.214L96.4174 183.422C94.7831 184.001 92.1626 183.035 90.6101 182.438C91.2667 183.02 91.9748 183.466 92.0551 184.312L91.8487 184.441C90.0639 184.247 88.8769 183.118 87.548 182.023C85.3991 181.8 82.8603 181.489 81.4339 179.651C80.7996 178.836 81.7077 178.169 82.35 177.844Z" fill="black"/>
<path d="M76.0479 157.16C76.544 157.295 76.7418 157.404 76.9642 157.868C77.0823 159.632 73.8084 162.506 72.1314 163.015C71.5508 162.856 71.3547 162.707 71.0974 162.173C70.9662 160.244 74.4142 157.835 76.0479 157.16Z" fill="black"/>
<path d="M110.968 159.973C112.273 160.229 112.525 161.598 113.498 162.453C114.378 163.224 116.146 163.323 115.659 164.653C114.774 164.692 113.223 164.973 112.475 164.893C110.957 164.729 110.759 161.054 110.968 159.973Z" fill="black"/>
<path d="M70.3977 158.121C70.8018 158.19 70.7734 158.197 71.0936 158.462C71.9931 160.104 69.2679 162.498 67.9365 163.146C67.5716 163.1 67.543 163.034 67.2269 162.825C66.4998 161.324 69.3407 159.07 70.3977 158.121Z" fill="black"/>
<path d="M101.101 101.441C101.554 101.512 101.619 101.479 101.964 101.784C102.021 102.718 102.619 105.924 102.47 106.367C102.169 106.758 101.885 106.777 101.404 106.915C99.5586 105.94 99.2561 102.527 101.101 101.441Z" fill="black"/>
<path d="M65.8689 159.761C66.3494 159.663 66.6259 159.771 66.9303 160.111C67.0336 161.309 64.9987 162.713 64.0964 163.189C63.4972 163.114 63.2139 162.948 62.8322 162.508C62.6432 161.025 64.7571 160.263 65.8689 159.761Z" fill="black"/>
<path d="M158.432 116.961C162.867 116.527 164.676 118.502 164.439 122.819C163.993 130.948 158.481 137.682 152.784 143.022C151.547 144.012 150.456 144.793 149.164 145.699C150.874 137.963 152.18 130.425 152.529 122.505C152.566 121.642 152.663 120.747 152.8 119.896C154.321 118.118 156.118 117.202 158.432 116.961Z" fill="#BEB5A8"/>
</svg>

<svg xmlns="http://www.w3.org/2000/svg" width="179" height="208" fill="none" viewBox="0 0 179 208"><path fill="#000" d="M116.2 7a55 55 0 0 0-27.5-7C77.6.4 65.7 3.8 58 12.3a30 30 0 0 0-4.5 6.5 68 68 0 0 0-26.3 9.5 37 37 0 0 0-14.9 23.5 152 152 0 0 0-.5 45.8c.7 3.6.6 7.4 1.3 11-7.2-1.2-11.8 1.7-12.9 9.3-2 14 10.3 26.8 23.3 30.2 1 4.5 2.6 8.4 4.1 12.6 8.7 23.9 31.6 44.2 57.4 46.8q21.5 1.6 38-12.4c13.5-11.3 21.5-29.6 25.5-46.4 10.7-2.8 21.2-16.3 20-27.7-.9-7.5-6.4-8.9-12.8-8 .8-2.4 2.6-5 3.1-7.1l-.4-1.6c7.7-2.8 12.2-6.6 10.4-15.3 6.6-5.1 16.2-20 2.5-39.4a21 21 0 0 0-5.2-5.1C162.3 32 147 7 116.2 7"/><path fill="#beb5a8" d="M147 134c1.1-7.8 1.5-16.1 1.4-24-27.7 4.2-43-30.7-47.3-48.7-8.9-8.8-34.8-.7-46.7 4.4-.1 23.7-20 36-30 39.3l-.1 16.2c0 1.5.6 5.4-1 6.1q-.8 0-1.2-.6c-3.6-4.4-.1-11.2-7.1-13.3-1.6-.4-3.1-1.1-4.8-1.1-4 0-6.1 4.3-6.1 7.6 0 6.2 3.7 13.4 7.7 17.7q4.6 4.8 11 6.1c-.3-1.5-1.6-5.6.6-6 2.4-.5 2.7 4.8 3 6.5q1.1 4.9 2.7 9.6a74 74 0 0 0 34.2 42.1l.8-.5q.5.6.5 1.4c.4.3 1.3.8 1.7.8q.2-.8.7-1.2c.8.3.9 1.5 1.5 2.3l.5.2c.6-.6 0-1 .6-1.2 2.4 1.1.9 2.3 5.4 3.5-.4-1-.6-1.4-.4-2.6.3-.4 0-.2.6-.3 1.8.5 1.3 1.9 2.8 2.3 3.1 1 2.3 2.4 6.2 2.5q-.7-2-.6-3.9l.2-.3c1.3.3 2.6 3.4 3.2 4.5h3.6c0-1.3-.4-3.4.4-4.5.4-.2.2-.2.6 0 1.5 1.2 1.6 4 4.2 4.2l.3-.1c.2-1-.9-1.8-.2-2.4 1.9-.1 2.1 3 4 1.6-.6-1-1.7-1.9-1.8-2.8 1-.4 3.4 1.6 4.5 2q1.7-.2 3-1-1.2-.7-1.9-2v-.3c1-.5 3.8.8 5 1.2l2.1-1q-.7-.4-1-1v-.3q.9-.2 1.6.1l.8.4 2-1.2c16.3-10.2 25.4-28.8 29.8-46.8q2-7.7 3-15.5"/><path fill="#000" d="M111.2 99.6c5.8-.5 14.1.1 19.4 2.7 3.3 1.7 6.4 4.4 8.6 7.3.5.7 1.7 2.6 1.9 3.5 1.2 5.4-4.2 0-5.4-.9-7.5-5.8-18-4.5-27-5.2-.7-.2-2 .6-2.6.5-3.4-.2-3.7-7.4-.3-7.7q.6.2.8 1l.2-.3c1-1 3-.8 4.4-.9m-55.5-3.8 2.6-.1c4.3 0 17.8 1.8 20.6 4.8q.7.7.6 1.6-.2 1.5-1.4 2.5-.7.6-1.7.7c-2.7.2-5.6-.7-8.3-1.2l-7-1.2c-8-.9-12.7-.2-19.7 3.7q-1 .6-2 .3c-1-1-.2-2 .5-3 4-4.7 9.7-7.5 15.8-8.1M98 116.9c.6 0 .6 0 1 .3.6.8.2 2.3.1 3.4l-.3 4.8c0 2.3-.1 4.6.6 6.9 1.1 4 4.6 7.4 4.4 11.8-.4 8-11.3 9.6-17.5 9.4-1-.2-2.3-.6-2.5-1.8.6-2.5 5.8-1.7 8-2.2 1.8-.5 4-1 5.6-2.2 5.4-3.8-1-10-1.8-14.4q-.8-5.7.4-11.4c.3-1.7.6-3.6 2-4.6m-38.4-2.4q4.7-.2 9 1c1.4.5 6.8 2.5 6 4.5q-.7.4-1.5.3a27 27 0 0 0-11.9-2.3c.5 3.1.8 5.5-2.7 6.7-1.7.5-4.3.5-5.8-.3-1.6-1-2-2-2.4-3.6-1.5.6-5.9 4.2-6.7 2.2q.2-1.5 1.4-2.8c3.8-4.1 9.2-5.4 14.6-5.7m53.8 4.6c5.8-.2 19 3.4 20.4 11q0 .4-.4.7l-1.4-.2c-2.6-2-4.7-3.8-7.7-5.3a23 23 0 0 0-4.5-1.7c0 .8-.1 2.1-.4 2.8-2 5.2-8.8 3-10.6-1.2 0-1 .1-1.3.3-2.3-1 0-4 .4-4.7-.6.5-2.1 7.1-3 9-3.2M68.7 167c2-.1 6.9 1 9.2 1.3q5.4 1 11 1.1 8.2.5 16.3-.4c1.3-.2 3.3-.6 4 .9 0 1-.7 1.2-1.6 1.5a69 69 0 0 1-20 1.4 70 70 0 0 1-16.8-3c-.9-.2-2.4-.5-3-1.2-.3-1 0-1.2.9-1.6m27.8-11c1.7-.2 2.3 0 3.7.8 1 1.9 1.3 2.4 2.7 4 0-.9-.3-2.1.8-2.3 1 .3 2.6 3 3.8 4.1-.3-.8-1-2.4-.5-3.2 1-.1 5.1 5 3.8 6l-1-.2c-.9-.8-1.3-1.5-2.1-2.3q.1 1-.6 1.4c-1.1.3-1.2-.2-2.1-.7s-.2.4-1.2.9q-.7 0-1.3-.7l-.2-.1h-.1q.5.8.2 1.6l-.4.1q-1-.6-1.8-1.4-1.2.3-2.4.1c-4.2-.9-6.8-6.7-1.3-8.2m-11-.7q2.1 0 3.5 1.6a4 4 0 0 1-.8 5.8c-2.3 1.7-3.8.3-6.2.5-1.7.1-2.8 1.4-4.7 1.1-.1-1 .7-1.6 1.3-2.3-.9.5-2.2 1.5-3.2 1.1-.3-1.1 3.5-5.6 4.6-5.9.2.3.1.3.2.8.3 0 2.2-1.7 3-2 1-.5 1.2-.5 2.3-.7m-3.1 22.6 2 .4q6.4 1.3 13 .6c1.2-.1 2.7-1 4-1l.3.5c-.1 3.7-4.9 2.9-7.4 3 .6 1.2 1.8 1 2.3 2l-.2.1c-1.6.6-4.2-.4-5.8-1q1.2.7 1.5 2h-.3c-1.7-.2-3-1.3-4.3-2.4-2.1-.2-4.6-.5-6-2.3-.7-.9.2-1.5.8-1.9M76 157.2q.7 0 1 .7c0 1.7-3.2 4.6-4.9 5.1q-.6-.1-1-.8c-.1-2 3.3-4.4 5-5M111 160c1.3.2 1.5 1.6 2.5 2.5.9.7 2.6.8 2.2 2.2-1 0-2.5.3-3.2.2-1.5-.2-1.7-3.8-1.5-5m-40.6-1.8q.4 0 .7.4c.9 1.6-1.8 4-3.2 4.6q-.3 0-.7-.3c-.7-1.5 2.1-3.7 3.2-4.7m30.7-56.7c.5.1.5 0 .9.4 0 1 .6 4.1.5 4.6q-.4.5-1.1.5c-1.8-1-2.1-4.4-.3-5.5m-35.2 58.4q.6-.2 1 .3c.1 1.2-1.9 2.6-2.8 3q-.8 0-1.3-.6c-.2-1.5 2-2.2 3-2.7"/><path fill="#beb5a8" d="M158.4 117q6.6-.7 6 5.8c-.4 8.1-6 14.9-11.6 20.2l-3.6 2.7a134 134 0 0 0 3.6-25.8 8 8 0 0 1 5.6-3"/></svg>
